X: 4
T: Old Crossroads, The
Z: ceolachan
S: https://thesession.org/tunes/3659#setting25693
R: barndance
M: 4/4
L: 1/8
K: Ador
|: A>G |E2 A2 A2 B/c/d | e2 a2 ge- ed | c>B ce dBGA | B2 A2 GE- ED |
EA- A^G AB cd | e2- ea ge ed | c2 ce d>B GA | B2 A2 A2 :|
|: ag |e2 a2 a2 ^ga | b2 a2 ge- eg | d>^c de g>f ga | ge c/d/e/f/ g2 b/a/g |
e2- ea a2 ga | bc'/b/ ab/a/ ge ed | c2 ce d>B GA | B2 A2 A2 :|
